X:570
%%etbk:tnset id:327,pos:2,rep:3x,ant:
%%etbk:video src:ytube,cde:dr_XyyIJb_c,desc:
%%etbk:color #ffffcc
%%etbk:pldat 2016-09-17T15:56,2016-09-09T19:25,2016-09-08T19:18,2016-09-06T18:19,2016-07-31T17:28,2016-07-23T16:28,2015-01-24T13:48,2014-12-13T16:35,2014-11-18T17:17,2014-09-25T18:04,2014-09-10T16:44,2014-09-08T18:47,2014-08-31T14:31,2014-08-26T17:24,2014-08-03T16:25,2014-07-05T14:40,2014-06-22T16:53,2014-06-19T19:31,2014-06-15T13:40,2014-06-07T15:56,2014-05-19T19:09,2014-05-17T14:24,2014-05-11T11:52,2014-05-08T18:28,2014-05-05T18:41,2014-05-02T16:29,2014-04-28T19:25,2014-04-27T15:38,2014-04-12T13:06,2014-04-09T18:05,2014-04-08T16:30,2014-04-06T15:10,2014-04-01T16:59,2014-03-31T19:00,2014-03-26T15:57
T: Hats Off To Dodd
Z: Piano Box Version by Martin Fleischmann
H: Created 2014-03-26 /  Last Modified 2016-07-23
R: slip jig
M: 9/8
L: 1/8
K: Gmin
|:"gm"!1!D2!3!G GFD !3!G2F | !1!D2!3!G GFD !3!Bcd | "dm"!4!c2!2!A !2!A!1!G!3!F !1!CD!3!F|1 "gm"!1!D2!3!G GFD !3!G2F:|2 "gm"!1!D2!3!G B2A G2F||
|:"gm"!1!G3 GFG !3!Bcd| "F"!4!c3 !2!cBc d2g | "B"!4!f2!2!d d!1!c!3!B !3!Bc!5!d| "F"!4!c!2!A!1!F !2!A!1!G!2!F !3!G2F:||]


